X:1536
T:Lady Mary Ramsay
R:reel
N:"collected from F. O'Neill"
B:"O'Neill's Dance Music of Ireland, 1536"
T: beanti.gearna maire ramsei.
Z:transcribed by John B. Walsh, walsh@math.ubc.ca 8/23/96
M:C|
L:1/8
K:G
D2 "Segno"|G2 (G>B) dBGB|dBeB dBAB|G2 (GB)d2 (Bd)|((3efg) (dB) AcBA|
G2 (G>B) dBGB|dBeB dBAB|G2 (GB) dBGB|((3efg) dB A2||
(ga)|b2 (gb) a2 (fa)|g2 (eg) (fd) B2|b2 gb a2 fa|gfef d2 (ga)|
bagb agfa|gfeg dega|bgaf gfed|((3efg) dB AcBA "Segno"||


